public/icons/tech/nextjs.svg

<svg width="100" height="100" viewBox="0 0 100 100" fill="none" xmlns="http://www.w3.org/2000/svg">
<g id="nextjs2">
<g id="nextjs2_2">
<path id="Vector" d="M50 99.9996C77.6142 99.9996 100 77.6139 100 49.9996C100 22.3854 77.6142 -0.000366211 50 -0.000366211C22.3858 -0.000366211 0 22.3854 0 49.9996C0 77.6139 22.3858 99.9996 50 99.9996Z" fill="white"/>
<path id="Vector_2" d="M83.06 87.511L38.4122 29.9996H30V69.983H36.7298V38.546L77.7773 91.5803C79.6294 90.3405 81.394 88.9804 83.06 87.511Z" fill="url(#paint0_linear_790_6564)"/>
<path id="Vector_3" d="M70.5558 29.9996H63.8892V69.9996H70.5558V29.9996Z" fill="url(#paint1_linear_790_6564)"/>
</g>
</g>
<defs>
<linearGradient id="paint0_linear_790_6564" x1="60.5555" y1="64.7219" x2="80.2778" y2="89.1663" gradientUnits="userSpaceOnUse">
<stop/>
<stop offset="1" stop-color="white" stop-opacity="0"/>
</linearGradient>
<linearGradient id="paint1_linear_790_6564" x1="67.2225" y1="29.9996" x2="67.1109" y2="59.3748" gradientUnits="userSpaceOnUse">
<stop/>
<stop offset="1" stop-color="white" stop-opacity="0"/>
</linearGradient>
</defs>
</svg>

<svg xmlns="http://www.w3.org/2000/svg" fill="none" viewBox="0 0 100 100"><path fill="#000" d="M50 99.999c27.614 0 50-22.386 50-50s-22.386-50-50-50-50 22.386-50 50 22.386 50 50 50"/><path fill="url(#a)" d="M83.06 87.51 38.412 30H30v39.983h6.73V38.545L77.777 91.58a50 50 0 0 0 5.283-4.07"/><path fill="url(#b)" d="M70.556 29.999h-6.667v40h6.667z"/><defs><linearGradient id="a" x1="60.556" x2="80.278" y1="64.721" y2="89.166" gradientUnits="userSpaceOnUse"><stop stop-color="#fff"/><stop offset="1" stop-color="#fff" stop-opacity="0"/></linearGradient><linearGradient id="b" x1="67.222" x2="67.111" y1="29.999" y2="59.374" gradientUnits="userSpaceOnUse"><stop stop-color="#fff"/><stop offset="1" stop-color="#fff" stop-opacity="0"/></linearGradient></defs></svg>
